public/assets/Micromouse.svg

<svg width="132" height="105" viewBox="0 0 132 105" fill="none" xmlns="http://www.w3.org/2000/svg">
<path d="M6.5625 45.9375H13.125V85.3125H6.5625C5.70041 85.3135 4.84659 85.1445 4.04992 84.8151C3.25325 84.4856 2.5294 84.0023 1.91981 83.3927C1.31022 82.7831 0.826868 82.0592 0.497438 81.2626C0.168008 80.4659 -0.00103003 79.6121 4.72199e-06 78.75V52.5C-0.00103003 51.6379 0.168008 50.7841 0.497438 49.9874C0.826868 49.1908 1.31022 48.4669 1.91981 47.8573C2.5294 47.2477 3.25325 46.7644 4.04992 46.4349C4.84659 46.1055 5.70041 45.9365 6.5625 45.9375ZM111.562 36.0938V91.875C111.559 95.3549 110.175 98.6913 107.714 101.152C105.254 103.613 101.917 104.997 98.4375 105H32.8125C29.3326 104.997 25.9962 103.613 23.5355 101.152C21.0749 98.6913 19.6909 95.3549 19.6875 91.875V36.0938C19.6868 33.9391 20.1107 31.8053 20.9349 29.8145C21.7592 27.8237 22.9676 26.0148 24.4912 24.4912C26.0148 22.9676 27.8237 21.7592 29.8145 20.9349C31.8053 20.1107 33.9391 19.6868 36.0938 19.6875H59.0625V6.5625C59.0625 4.82202 59.7539 3.15282 60.9846 1.92211C62.2153 0.691404 63.8845 0 65.625 0C67.3655 0 69.0347 0.691404 70.2654 1.92211C71.4961 3.15282 72.1875 4.82202 72.1875 6.5625V19.6875H95.1563C97.311 19.6868 99.4447 20.1107 101.435 20.9349C103.426 21.7592 105.235 22.9676 106.759 24.4912C108.282 26.0148 109.491 27.8237 110.315 29.8145C111.139 31.8053 111.563 33.9391 111.562 36.0938ZM54.1406 52.5C54.1406 50.8776 53.6595 49.2916 52.7582 47.9426C51.8568 46.5936 50.5756 45.5422 49.0767 44.9213C47.5778 44.3004 45.9284 44.138 44.3372 44.4545C42.7459 44.771 41.2842 45.5523 40.137 46.6995C38.9898 47.8467 38.2085 49.3084 37.892 50.8996C37.5755 52.4909 37.7379 54.1403 38.3588 55.6392C38.9797 57.1381 40.0311 58.4193 41.3801 59.3206C42.7291 60.222 44.3151 60.7031 45.9375 60.7031C47.0148 60.7032 48.0815 60.4911 49.0768 60.0789C50.0721 59.6666 50.9764 59.0624 51.7382 58.3007C52.4999 57.5389 53.1042 56.6346 53.5164 55.6393C53.9286 54.644 54.1407 53.5773 54.1406 52.5ZM52.5 78.75H39.375V85.3125H52.5V78.75ZM72.1875 78.75H59.0625V85.3125H72.1875V78.75ZM93.5156 52.5C93.5156 50.8776 93.0345 49.2916 92.1332 47.9426C91.2318 46.5936 89.9506 45.5422 88.4517 44.9213C86.9528 44.3004 85.3034 44.138 83.7122 44.4545C82.1209 44.771 80.6592 45.5523 79.512 46.6995C78.3648 47.8467 77.5835 49.3084 77.267 50.8996C76.9505 52.4909 77.1129 54.1403 77.7338 55.6392C78.3547 57.1381 79.4061 58.4193 80.7551 59.3206C82.1041 60.222 83.6901 60.7031 85.3125 60.7031C86.3898 60.7032 87.4565 60.4911 88.4518 60.0789C89.4471 59.6666 90.3514 59.0624 91.1132 58.3007C91.8749 57.5389 92.4792 56.6346 92.8914 55.6393C93.3036 54.644 93.5157 53.5773 93.5156 52.5ZM91.875 78.75H78.75V85.3125H91.875V78.75ZM131.25 52.5V78.75C131.251 79.6121 131.082 80.4659 130.753 81.2626C130.423 82.0592 129.94 82.7831 129.33 83.3927C128.721 84.0023 127.997 84.4856 127.2 84.8151C126.403 85.1445 125.55 85.3135 124.688 85.3125H118.125V45.9375H124.688C125.55 45.9365 126.403 46.1055 127.2 46.4349C127.997 46.7644 128.721 47.2477 129.33 47.8573C129.94 48.4669 130.423 49.1908 130.753 49.9874C131.082 50.7841 131.251 51.6379 131.25 52.5Z" fill="white"/>
</svg>

<svg width="132" height="105" fill="none" xmlns="http://www.w3.org/2000/svg"><path d="M6.563 45.938h6.562v39.374H6.562A6.556 6.556 0 0 1 0 78.75V52.5a6.555 6.555 0 0 1 6.563-6.563Zm104.999-9.844v55.781A13.135 13.135 0 0 1 98.438 105H32.811a13.135 13.135 0 0 1-13.124-13.125V36.094a16.402 16.402 0 0 1 16.406-16.407h22.968V6.563a6.563 6.563 0 0 1 13.126 0v13.125h22.968a16.397 16.397 0 0 1 15.159 10.127 16.4 16.4 0 0 1 1.247 6.28ZM54.141 52.5a8.204 8.204 0 1 0-16.408 0 8.204 8.204 0 0 0 16.408 0ZM52.5 78.75H39.375v6.563H52.5V78.75Zm19.688 0H59.062v6.563h13.126V78.75ZM93.516 52.5a8.204 8.204 0 1 0-16.408 0 8.204 8.204 0 0 0 16.408 0Zm-1.641 26.25H78.75v6.563h13.125V78.75ZM131.25 52.5v26.25a6.563 6.563 0 0 1-1.92 4.643 6.545 6.545 0 0 1-4.642 1.92h-6.563V45.937h6.563a6.554 6.554 0 0 1 6.562 6.563Z" fill="#fff"/></svg>
